X:4
T: Braut - Werbung (Hildesage)
N: Q0003A
O: Suedosteuropa, Jugoslawien, Gottschee, Innlauf
N: Letzte Zeile = Refrain auf sinnfreie Silben.
R: Ballade, Braut - Werbung
M: 2/4
L: 1/8
K: Bb
F2 | BBAB | ccB
d | cBAG | AGF2 |
F2FA | B2z2 | cdcA | B2

